icons/desktop/20/email-mask-20.svg

<svg width="20" height="20" viewBox="0 0 20 20" fill="none" xmlns="http://www.w3.org/2000/svg">
<g clip-path="url(#clip0_8069_32725)">
<path fill-rule="evenodd" clip-rule="evenodd" d="M15.4932 12.1097C16.1278 10.8376 16.6184 10.5377 17.1748 10.6526C17.664 10.7532 17.9611 11.631 18.123 12.014C18.4377 12.7579 18.7027 13.5043 18.8555 14.2932C18.961 14.8376 19.2431 15.2385 19.7959 15.2386L19.7998 15.2405C19.9398 15.2424 20.0364 15.3877 19.9873 15.5188C19.869 15.8351 19.5049 16.0358 19.2012 16.1526C19.3393 16.1885 19.747 16.1081 19.7637 16.3108C19.7764 16.478 19.3519 16.6457 19.2373 16.7015C18.1662 17.2172 17.1805 18.1422 15.9131 17.9788C15.362 17.9069 14.9599 17.5184 14.5088 17.2776C14.2961 17.1645 14.0379 17.1646 13.8252 17.2776C13.3742 17.5184 12.9719 17.9069 12.4209 17.9788C11.1532 18.1423 10.167 17.2172 9.0957 16.7015C8.981 16.6475 8.55577 16.4779 8.57031 16.3108C8.58888 16.1064 8.99647 16.1885 9.13281 16.1526C8.82913 16.0358 8.46498 15.835 8.34668 15.5188C8.29757 15.3876 8.39231 15.2405 8.53418 15.2405C9.08867 15.2386 9.36909 14.8395 9.47461 14.2952C9.62739 13.5045 9.89238 12.7599 10.207 12.0159C10.3689 11.6349 10.6661 10.7542 11.1553 10.6536C11.7116 10.5389 12.2041 10.8378 12.8369 12.1116C13.3517 13.1449 13.7024 13.8721 13.7119 13.8919V13.8997L14.0703 13.8958L14.0791 13.8938H14.2598L14.6182 13.8977V13.8909C14.6182 13.8909 14.9712 13.1591 15.4932 12.1097ZM13.4248 16.1946C13.1665 15.3662 12.1059 15.0528 11.3057 15.1858C11.171 15.2074 10.8 15.3394 10.8164 15.51C11.1765 16.4013 12.69 16.8648 13.4248 16.1946ZM17.0225 15.1858C16.2227 15.0529 15.1624 15.3653 14.9033 16.1927C15.638 16.8647 17.1496 16.4012 17.5117 15.51C17.5281 15.3393 17.1571 15.2074 17.0225 15.1858Z" fill="black"/>
<path fill-rule="evenodd" clip-rule="evenodd" d="M2.63184 3.3909C5.85779 2.87092 9.19516 2.87273 12.4121 3.39872C13.7308 3.61255 14.7313 4.6412 14.9531 5.93387L14.958 5.94266L14.9541 5.94461C14.9832 6.11784 15 6.29551 15 6.47684V9.73758C14.6746 10.0627 14.4014 10.4571 14.1631 10.8792C13.906 10.4231 13.6108 9.99834 13.25 9.65946V6.9954L9.13867 9.53153C8.63269 9.84351 8.06798 10.0003 7.5 10.0003C6.93302 10.0003 6.36633 9.84351 5.86035 9.53153L1.75 6.99637V10.5227C1.75012 11.1896 2.23124 11.7703 2.87012 11.8743C4.28109 12.1043 5.7173 12.2177 7.15527 12.2347L8.24707 12.2395C8.04256 12.8102 7.84137 13.442 7.7207 13.9593C6.3212 13.9129 3.8232 13.8044 2.58789 13.6018C1.08903 13.3588 0.000111264 12.0636 0 10.5237V6.47977C2.58989e-05 6.29783 0.0162181 6.11942 0.0458984 5.94559L0.0410156 5.94266L0.0478516 5.92997C0.27527 4.63715 1.29227 3.60797 2.63184 3.3909ZM7.5 4.7493C5.96807 4.7493 4.42407 4.87347 2.91113 5.11844C2.71352 5.15015 2.53208 5.22272 2.37402 5.32547L6.77832 8.04227C7.22314 8.31697 7.77589 8.31697 8.2207 8.04227L12.6299 5.32254C12.4808 5.22425 12.3122 5.15397 12.1299 5.1243C10.605 4.87533 9.04793 4.7493 7.5 4.7493Z" fill="black"/>
</g>
<defs>
<clipPath id="clip0_8069_32725">
<rect width="20" height="20" fill="white"/>
</clipPath>
</defs>
</svg>

<!-- This Source Code Form is subject to the terms of the Mozilla Public
   - License, v. 2.0. If a copy of the MPL was not distributed with this
   - file, You can obtain one at http://mozilla.org/MPL/2.0/. -->
<svg xmlns="http://www.w3.org/2000/svg" width="20" height="20" fill="context-fill" fill-opacity="context-fill-opacity" viewBox="0 0 20 20">
    <g fill-rule="evenodd" clip-rule="evenodd">
        <path d="M15.493 12.11c.635-1.272 1.125-1.572 1.682-1.457.489.1.786.978.948 1.361.315.744.58 1.49.732 2.28.106.544.388.944.94.945l.005.002c.14.001.236.147.187.278-.118.316-.482.517-.786.634.138.036.546-.045.563.158.012.167-.412.335-.527.39-1.07.516-2.056 1.441-3.324 1.278-.551-.072-.953-.46-1.404-.701a.73.73 0 0 0-.684 0c-.45.24-.853.629-1.404.7-1.268.164-2.254-.76-3.325-1.277-.115-.053-.54-.223-.526-.39.019-.205.426-.122.563-.158-.304-.117-.668-.318-.786-.634a.205.205 0 0 1 .187-.278c.555-.002.835-.402.94-.946.153-.79.418-1.535.733-2.28.162-.38.46-1.26.948-1.361.557-.115 1.05.184 1.682 1.458.515 1.033.865 1.76.875 1.78v.008l.358-.004.01-.002h.18l.358.004v-.007s.353-.732.875-1.781m-2.068 4.085c-.259-.829-1.32-1.142-2.12-1.01-.134.022-.505.154-.489.325.36.891 1.874 1.355 2.609.685m3.598-1.01c-.8-.132-1.86.18-2.12 1.008.735.672 2.247.208 2.609-.683.016-.17-.355-.303-.49-.324" />
        <path d="M2.632 3.39a30.7 30.7 0 0 1 9.78.009 3.08 3.08 0 0 1 2.541 2.535l.005.009-.004.002q.045.26.046.532v3.26c-.325.326-.599.72-.837 1.142-.257-.456-.552-.88-.913-1.22V6.995L9.139 9.532A3.1 3.1 0 0 1 7.5 10a3.1 3.1 0 0 1-1.64-.468L1.75 6.996v3.527c0 .667.481 1.247 1.12 1.351a28.6 28.6 0 0 0 4.285.36l1.092.005a17 17 0 0 0-.526 1.72c-1.4-.046-3.898-.155-5.133-.357C1.089 13.359 0 12.064 0 10.524V6.48q0-.273.046-.534L.04 5.943l.007-.013a3.12 3.12 0 0 1 2.584-2.54M7.5 4.75c-1.532 0-3.076.123-4.589.368a1.4 1.4 0 0 0-.537.207l4.404 2.717c.445.275.998.275 1.443 0l4.409-2.72a1.3 1.3 0 0 0-.5-.198A29 29 0 0 0 7.5 4.75" />
    </g>
</svg>
